frontend/public/svg/interface/setting-3.svg

<svg width="168" height="166" viewBox="0 0 168 166" fill="none" xmlns="http://www.w3.org/2000/svg">
<g clip-path="url(#clip0)">
<path d="M10.3297 134.943C12.146 135.197 13.917 134.565 15.5909 133.059C18.0668 130.83 20.7252 128.705 23.2936 126.65C24.3098 125.837 25.3267 125.026 26.3359 124.204C27.6719 123.118 29.0207 122.047 30.4195 120.936L31.8151 119.826C32.8352 121.162 33.8683 122.476 34.871 123.751C37.9903 127.718 40.9419 131.472 43.3834 135.69L43.1621 135.891C42.797 136.221 42.4844 136.505 42.1568 136.771C40.3272 138.254 38.4932 139.733 36.6549 141.209C32.8579 144.269 28.9308 147.43 25.1105 150.595C23.1111 152.251 22.1828 153.728 22.1899 155.241C22.1977 156.772 23.168 158.27 25.2439 159.957C28.3206 162.534 32.0091 164.273 35.9526 165.005C38.5338 165.465 41.15 165.699 43.7718 165.704C46.2101 165.703 48.6439 165.494 51.0467 165.078C69.2571 161.945 82.3666 144.97 80.8908 126.431C80.6183 122.618 79.703 118.88 78.1826 115.374L118.611 81.8577C119.597 82.1042 120.536 82.357 121.447 82.6009C123.434 83.1728 125.449 83.6416 127.484 84.0041C131.901 84.6797 136.408 84.4606 140.739 83.3595C145.069 82.2578 149.136 80.297 152.696 77.593C156.653 74.6536 159.981 70.9478 162.483 66.696C164.984 62.4446 166.609 57.7336 167.26 52.8416C168.528 43.8568 165.65 35.8678 163 29.9132C162.893 29.672 162.778 29.4329 162.664 29.1936C162.349 28.5934 162.099 27.9609 161.918 27.3072C161.474 25.3865 160.718 24.2012 159.605 23.6831C158.581 23.2065 157.309 23.3512 155.826 24.1118C153.839 25.2096 152.008 26.5691 150.382 28.1541C146.695 31.5727 143.014 35.0978 139.452 38.5079C138.193 39.7136 136.934 40.9164 135.678 42.1164L119.248 28.2754L119.287 28.2023C119.399 27.9657 119.531 27.7386 119.679 27.5237C123.678 22.2636 128.536 16.169 134.295 10.8129C135.075 10.1407 135.774 9.37897 136.377 8.54333C137.37 7.04674 137.218 5.42251 136.01 4.59316C135.737 4.40555 135.463 4.21561 135.187 4.02325C133.33 2.72637 131.41 1.38871 129.261 0.818736C126.283 0.101297 123.211 -0.137497 120.159 0.111726C112.833 0.482834 105.693 2.55628 99.3035 6.16772C87.4899 12.9711 81.4695 22.8862 81.4086 35.6377C81.3743 39.8496 82.4333 43.9981 84.4832 47.676C71.2747 58.0185 59.4594 67.5117 48.9209 78.423C43.595 75.743 38.0517 75.9894 33.3045 76.5957C20.8572 78.1895 11.7499 84.0527 6.23439 94.027C2.10092 101.458 0.275283 109.956 0.991298 118.433C1.36931 123.341 2.57779 127.365 4.68665 130.736C6.17994 133.117 8.23441 134.648 10.3297 134.943ZM55.4126 81.9278C59.5483 78.4444 63.6923 74.9713 67.8447 71.51C72.5369 67.5876 77.2233 63.6581 81.9038 59.7208C83.5104 58.3643 85.0898 56.9326 86.6167 55.543C87.9883 54.2967 89.4059 53.0083 90.8325 51.7879C92.1581 50.6531 92.1271 49.3931 91.8934 48.1987C90.5341 41.2014 90.4007 35.0225 91.4914 29.3085C92.0254 26.3196 93.1491 23.4674 94.7971 20.9187C96.4445 18.3699 98.5824 16.1758 101.087 14.4644C108.281 9.39246 116.991 6.93923 125.77 7.51238C126.337 7.55939 126.901 7.65193 127.453 7.78881C127.065 8.19408 126.726 8.55319 126.389 8.91502C124.971 10.4375 123.55 11.9571 122.127 13.4741C118.534 17.3115 114.82 21.2806 111.223 25.2393C108.793 27.9148 108.807 29.8187 111.277 32.5162C115.8 37.4553 120.281 42.1299 125.67 47.7272C126.655 48.6918 127.742 49.5468 128.91 50.277C133.099 53.0652 134.959 53.3538 139.202 49.8983C143.021 46.7897 146.785 43.4937 150.425 40.306C151.978 38.9451 153.535 37.5872 155.096 36.2323C155.71 35.7026 156.32 35.1684 157.007 34.566L157.185 34.4109C158.486 40.2838 159.603 45.8618 158.161 51.465C154.523 65.6008 144.687 73.1045 129.716 73.1713C127.912 73.1836 126.079 73.1298 124.302 73.0799C122.274 73.0241 120.174 72.9683 118.107 72.9956C116.782 73.0001 115.492 73.4203 114.417 74.1978L112.458 75.7774C106.224 80.8014 99.778 85.9961 93.6326 91.3399C89.0272 95.3459 84.4858 99.575 80.094 103.664C78.1521 105.473 76.2051 107.279 74.2522 109.08C74.1953 109.135 74.1415 109.192 74.0904 109.253C74.0742 109.274 74.0561 109.294 74.036 109.313C73.7396 109.573 73.4088 109.822 73.0573 110.083C72.166 110.64 71.4184 111.399 70.874 112.299C70.4345 113.402 70.241 114.587 70.3077 115.772C70.3012 116.12 70.2954 116.466 70.2759 116.802C70.2112 117.898 70.173 118.996 70.1342 120.094C70.0798 121.622 70.0235 123.201 69.8953 124.74C69.8015 125.868 69.7309 127.003 69.661 128.139C69.5555 131.281 69.1853 134.41 68.5548 137.49C66.1948 147.463 59.5876 153.571 48.9152 155.643C44.6521 156.55 40.249 156.577 35.9752 155.722C35.0988 155.536 34.2094 155.263 33.1796 154.948C33.0055 154.894 32.8262 154.839 32.6417 154.784C33.7525 153.93 34.842 153.097 35.9105 152.283C39.2227 149.754 42.3497 147.367 45.4081 144.878C46.9967 143.53 48.5041 142.089 49.9223 140.563C50.4013 140.066 50.881 139.57 51.3658 139.082C53.2617 137.171 53.5161 134.779 52.1011 132.164C51.1611 130.351 50.0236 128.648 48.7093 127.086C45.0386 122.862 41.136 118.537 37.1079 114.23C34.1524 111.07 32.2915 110.96 28.8098 113.736C25.4499 116.416 22.0974 119.106 18.7522 121.805C16.8363 123.346 14.9195 124.887 13.0017 126.427C12.6198 126.733 12.225 127.025 11.7583 127.374C11.7395 127.388 11.7201 127.402 11.7013 127.417C10.1064 122.038 9.93529 116.336 11.2049 110.87C11.7709 108.423 12.5176 106.022 13.4387 103.685C17.0337 94.6248 23.803 89.6312 34.1343 88.418L38.5307 87.8992C42.4396 87.4363 46.3487 86.9733 50.2602 86.5375C50.9847 86.5278 51.6888 86.2963 52.2779 85.8735C52.867 85.4507 53.3129 84.8581 53.5556 84.174C53.9844 83.2863 54.6216 82.5153 55.4126 81.9278Z" fill="black"/>
</g>
<defs>
<clipPath id="clip0">
<rect width="167" height="166" fill="white" transform="translate(0.777344)"/>
</clipPath>
</defs>
</svg>

<svg xmlns="http://www.w3.org/2000/svg" width="168" height="166" fill="none" viewBox="0 0 168 166"><g clip-path="url(#a)"><path fill="#000" d="M10.33 134.943c1.816.254 3.587-.378 5.26-1.884 2.477-2.229 5.135-4.354 7.704-6.409 1.016-.813 2.033-1.624 3.042-2.446 1.336-1.086 2.685-2.157 4.084-3.268l1.395-1.11a347 347 0 0 0 3.056 3.925c3.12 3.967 6.07 7.721 8.512 11.939l-.22.201c-.366.33-.679.614-1.006.88q-2.745 2.224-5.502 4.438c-3.797 3.06-7.724 6.221-11.545 9.386-1.999 1.656-2.927 3.133-2.92 4.646.008 1.531.978 3.029 3.054 4.716a23.3 23.3 0 0 0 10.709 5.048c2.58.46 5.197.694 7.819.699a43 43 0 0 0 7.275-.626c18.21-3.133 31.32-20.108 29.844-38.647a33.9 33.9 0 0 0-2.708-11.057l40.428-33.516c.986.246 1.925.499 2.836.743a60 60 0 0 0 6.037 1.403 33.34 33.34 0 0 0 25.212-6.411 36.9 36.9 0 0 0 9.787-10.897 36.9 36.9 0 0 0 4.777-13.854c1.268-8.985-1.61-16.974-4.26-22.929-.107-.241-.222-.48-.336-.72a9.5 9.5 0 0 1-.746-1.886c-.444-1.92-1.2-3.106-2.313-3.624-1.024-.477-2.296-.332-3.779.429a25.4 25.4 0 0 0-5.444 4.042c-3.687 3.419-7.368 6.944-10.93 10.354q-1.89 1.809-3.774 3.608l-16.43-13.84.039-.074q.169-.355.392-.678c3.999-5.26 8.857-11.355 14.616-16.711a13.2 13.2 0 0 0 2.082-2.27c.993-1.496.841-3.12-.367-3.95l-.823-.57C133.33 2.726 131.41 1.39 129.261.82a28.8 28.8 0 0 0-9.102-.707 47.24 47.24 0 0 0-20.856 6.056C87.49 12.97 81.47 22.886 81.41 35.638a24.3 24.3 0 0 0 3.074 12.038C71.275 58.019 59.46 67.512 48.921 78.423c-5.326-2.68-10.87-2.434-15.617-1.827-12.447 1.593-21.554 7.457-27.07 17.431a42.8 42.8 0 0 0-5.243 24.406c.378 4.908 1.587 8.932 3.696 12.303 1.493 2.381 3.547 3.912 5.643 4.207m45.083-53.015A3170 3170 0 0 1 67.845 71.51q7.038-5.883 14.059-11.79c1.606-1.356 3.186-2.787 4.713-4.177 1.371-1.246 2.789-2.535 4.215-3.755 1.326-1.135 1.295-2.395 1.061-3.59-1.359-6.997-1.492-13.175-.402-18.89a22.85 22.85 0 0 1 9.596-14.844 38.48 38.48 0 0 1 24.683-6.952c.567.047 1.131.14 1.683.277-.388.405-.727.764-1.064 1.126a1756 1756 0 0 1-4.262 4.56c-3.593 3.836-7.307 7.806-10.904 11.764-2.43 2.676-2.416 4.58.054 7.277 4.523 4.94 9.004 9.614 14.393 15.211a19 19 0 0 0 3.24 2.55c4.189 2.788 6.049 3.077 10.292-.379 3.819-3.108 7.583-6.404 11.223-9.592q2.33-2.04 4.671-4.074c.614-.53 1.224-1.064 1.911-1.666l.178-.155c1.301 5.873 2.418 11.45.976 17.054-3.638 14.136-13.474 21.64-28.445 21.706-1.804.013-3.637-.041-5.414-.091-2.028-.056-4.128-.112-6.195-.084a6.33 6.33 0 0 0-3.69 1.202l-1.959 1.58c-6.234 5.023-12.68 10.218-18.825 15.562-4.606 4.006-9.147 8.235-13.539 12.324a1585 1585 0 0 1-5.842 5.416q-.085.082-.162.173l-.054.06c-.296.26-.627.509-.979.77a6.7 6.7 0 0 0-2.183 2.216 8.15 8.15 0 0 0-.566 3.473c-.007.348-.013.694-.032 1.03-.065 1.096-.103 2.194-.142 3.292-.054 1.528-.11 3.107-.239 4.646a159 159 0 0 0-.234 3.399 56 56 0 0 1-1.106 9.351c-2.36 9.973-8.967 16.081-19.64 18.153a32 32 0 0 1-12.94.079c-.876-.186-1.766-.459-2.795-.774l-.538-.164q1.666-1.28 3.268-2.501c3.313-2.529 6.44-4.916 9.498-7.405a53 53 0 0 0 4.514-4.315q.718-.747 1.444-1.481c1.896-1.911 2.15-4.303.735-6.918a27.7 27.7 0 0 0-3.392-5.078 477 477 0 0 0-11.601-12.856c-2.956-3.16-4.816-3.27-8.298-.494q-5.04 4.02-10.058 8.069l-5.75 4.622c-.382.306-.777.598-1.244.947l-.057.043a32.4 32.4 0 0 1-.496-16.547 51 51 0 0 1 2.234-7.185c3.595-9.06 10.364-14.054 20.695-15.267l4.397-.519c3.909-.463 7.818-.926 11.73-1.362a3.55 3.55 0 0 0 3.295-2.363 6.1 6.1 0 0 1 1.857-2.246"/></g><defs><clipPath id="a"><path fill="#fff" d="M.777 0h167v166h-167z"/></clipPath></defs></svg>
